packages/core/src/svgs/tokens/branded/KLEVA.svg

<svg width="24" height="24" viewBox="0 0 24 24" fill="none" xmlns="http://www.w3.org/2000/svg">
<path d="M2.03764 15.5737L5.62354 21.9123C5.69018 22.0255 5.85015 22.0255 5.91013 21.9123L13.3018 8.84849C13.3234 8.80976 13.3348 8.76617 13.3348 8.72185C13.3348 8.67751 13.3234 8.63391 13.3018 8.5952L9.63603 2.12995C9.61534 2.09284 9.58548 2.06168 9.54924 2.0395C9.51316 2.0173 9.47179 2.00485 9.42934 2.00331H2.16428C2.1349 2.00371 2.10616 2.01189 2.08095 2.02699C2.05576 2.04211 2.035 2.0636 2.0208 2.08933C2.00658 2.11503 1.99943 2.14406 2.00004 2.17343C2.00066 2.2028 2.00904 2.23149 2.02431 2.25659L4.99033 7.34881C5.04366 7.44879 5.18363 7.46212 5.25694 7.37546L8.52289 4.02954C8.53658 4.01411 8.55568 4.00456 8.57622 4.00287C8.62288 3.99621 8.67619 4.03619 8.66954 4.08952C8.66954 4.10285 8.66954 4.11618 8.65621 4.12951L2.03764 15.3204C2.01605 15.3591 2.00472 15.4027 2.00472 15.447C2.00472 15.4913 2.01605 15.535 2.03764 15.5737ZM15.348 19.8728L21.9666 8.68184C21.9882 8.64313 21.9995 8.59954 21.9995 8.55522C21.9995 8.51088 21.9882 8.46729 21.9666 8.42858L18.3807 2.08995C18.3675 2.06326 18.3471 2.0408 18.3218 2.0251C18.2964 2.00939 18.2672 2.00107 18.2375 2.00107C18.2076 2.00107 18.1785 2.00939 18.1532 2.0251C18.1278 2.0408 18.1074 2.06326 18.0941 2.08995L10.7024 15.1538C10.6808 15.1925 10.6695 15.2361 10.6695 15.2804C10.6695 15.3247 10.6808 15.3683 10.7024 15.407L14.3682 21.8724C14.4082 21.9523 14.4883 21.9989 14.5749 21.9989H21.84C21.9266 21.9989 21.9933 21.9322 22 21.8456C22 21.8123 22 21.779 21.9799 21.7456L19.014 16.6535C19.0017 16.6299 18.9838 16.6097 18.9617 16.5947C18.9398 16.5798 18.9143 16.5706 18.8879 16.568C18.8614 16.5653 18.8347 16.5692 18.8101 16.5795C18.7857 16.5899 18.7641 16.6061 18.7473 16.6268L15.4813 19.9727C15.4678 19.9882 15.4486 19.9977 15.4281 19.9994C15.4161 20.0003 15.4042 19.9988 15.3928 19.9947C15.3816 19.9909 15.3712 19.9846 15.3625 19.9765C15.3536 19.9683 15.3466 19.9585 15.342 19.9475C15.3371 19.9366 15.3347 19.9248 15.3348 19.9128C15.3348 19.8994 15.3348 19.886 15.348 19.8728Z" fill="#1A56FF"/>
</svg>

<svg xmlns="http://www.w3.org/2000/svg" width="24" height="24" fill="none" viewBox="0 0 24 24">
    <path fill="#1A56FF" d="m2.038 15.574 3.586 6.338c.066.114.226.114.286 0l7.392-13.064a.26.26 0 0 0 0-.253L9.636 2.13a.25.25 0 0 0-.207-.127H2.164a.167.167 0 0 0-.14.254L4.99 7.349c.054.1.194.113.267.026L8.523 4.03a.08.08 0 0 1 .053-.027c.047-.007.1.033.094.087 0 .013 0 .026-.014.04L2.038 15.32a.26.26 0 0 0 0 .254m13.31 4.299 6.619-11.191a.26.26 0 0 0 0-.253l-3.586-6.34a.16.16 0 0 0-.287.001l-7.392 13.064a.26.26 0 0 0 0 .253l3.666 6.465c.04.08.12.127.207.127h7.265a.16.16 0 0 0 .16-.153c0-.034 0-.067-.02-.1l-2.966-5.092a.16.16 0 0 0-.204-.075.2.2 0 0 0-.063.048l-3.266 3.346a.08.08 0 0 1-.053.026q-.018.002-.035-.004a.1.1 0 0 1-.051-.047.1.1 0 0 1-.007-.035c0-.014 0-.027.013-.04"/>
</svg>
